!!!!SEGMENT: pl-kk--kk-i-382--003_anonim--nro-1-tolite-portas.krn
!!!cenid: 18xx:1456
!!!COM: Anonim
!!!COM-rismID: pe30004985
!!!CDT:
!!!CNT:
!!!OPR: Nro 1
!!!OTL: Tolite portas
!!!OMV: 004
!!!PDT:
!!!AGN: Sacred
!!!SMS-siglum: PL-Kk
!!!SMS-shelfmark: Kk.I.382
!!!SMS-shelfwork: 001-004 M
!!!SMS-variant:
!!!SMS-altvar:
!!!NIFC-rismSourceID: 1001139027
!!!NIFC-rismChildID: 1001139082
!!!NIFC-islandoraID: pl-kk:6162
!!!URL-pdf-islandora: https://repozytorium.nifc.pl/islandora/object/pl-kk%3A6162/datastream/PDF/view
!!!URL-scan: https://polish.musicsources.pl/pl/lokalizacje/galeria/rekopisy/5994 @EN{Scan on Polish Music Sources Website} @PL{Skany w portalu Dziedzictwo Muzyki Polskiej w otwartym dostępie}
!!!ONB-nifc: UWAGA: obsada: S/T 1, T 2, A/B 1, B 2. Skan 0004 (m.in.)
!!!AIN: 1 alto 1 bass 2 tenor
!!!key:
**kern	**text	**kern	**text	**kern	**text	**kern	**text
*part4	*part4	*part3	*part3	*part2	*part2	*part1	*part1
*staff4	*staff4	*staff3	*staff3	*staff2	*staff2	*staff1	*staff1
*Ibass	*	*Itenor	*	*Ialto	*	*Itenor	*
*I"Basso II	*	*I"Tenore II	*	*I"Alto vel Basso I	*	*I"Soprano vel Tenore I.	*
*I'B 2	*	*I'T 2	*	*I'A (B 1)	*	*I'S (T 1)	*
*clefF4	*	*clefC4	*	*clefC3	*	*clefC1	*
*k[]	*	*k[]	*	*k[]	*	*k[]	*
*C:	*	*C:	*	*C:	*	*C:	*
*M3/2	*	*M3/2	*	*M3/2	*	*M3/2	*
=1	=1	=1	=1	=1	=1	=1	=1
*	*	*	*	*	*	*rscale:1/2	*
*2\right	*	*2\right	*	*2\right	*	*2\right	*
!LO:TX:a:t=P:problem=all\right&colon; global	!	!	!	!	!	!LO:TX:a:t=P:problem=w źródle metrum 3/4, ale w pozostałych głosach 3/2	!
!LO:TX:i:a:t=adwentowe.	!	!LO:TX:a:t=P:problem=all\right&colon; global	!	!LO:TX:a:t=P:problem=all\right&colon; global	!	!LO:TX:a:t=P:problem=all\right&colon; global	!
!LO:TX:a:t=P:problem=metrum z kreską ułamkową	!	!LO:TX:a:t=P:problem=metrum z kreską ułamkową	!	!LO:TX:a:t=P:problem=metrum z kreską ułamkową	!	!LO:TX:a:t=P:problem=metrum z kreską ułamkową	!
!	!	!	!	!LO:SIC:l:v:s=Tol-	!	!LO:SIC:l:v:s=Tol-	!
!LO:TX:a:i:t=Graduale.	!	!LO:TX:a:i:t=Graduale.	!	!LO:TX:a:i:t=[G]raduale	!	!LO:TX:a:i:t=Tolite.	!
!LO:TX:a:t=P:problem= tytuł na pięciolinii przed kluczem	!	!LO:TX:a:t=P:problem= tytuł części przed kluczem	!	!LO:TX:a:t=P:problem= tytuł części przed kluczem	!	!LO:TX:a:t=P:problem= tytuł części przed kluczem	!
2.C/	Tol-	2.c\	Tol-	2.e\	Tol-	2.g\	To-
4C/	-li-	4c\	-li-	4e\	-li-	4g\	-li-
2C/	-te	2c\	-te	2e\	-te	2g\	-te
=2	=2	=2	=2	=2	=2	=2	=2
1G	por-	1B	por-	1d	por-	1g	por-
2G\	-tas	2B\	-tas	2d\	-tas	2g\	-tas
=3	=3	=3	=3	=3	=3	=3	=3
2.E\	prin-	2.c\	prin-	2.e\	prin-	2.g\	prin-
4E\	-ci-	4c\	-ci-	4e\	-ci-	4g\	-ci-
2E\	-pes	2c\	-pes	2e\	-pes	2g\	-pes
=4	=4	=4	=4	=4	=4	=4	=4
2.F\	prin-	2.A\	prin-	2.c\	prin-	2.a\	prin-
4F\	-ci-	4B\	-ci-	4c\	-ci-	4a\	-ci-
!	!	!	!	!	!	!LO:TX:a:t=P:problem= niejednoznaczna wysokość dźwięku	!
!	!	!	!	!	!	!LO:N:vis=4.	!
2E\	-pes	2c\	-pes	2c\	-pes	2a\	-pes
=5	=5	=5	=5	=5	=5	=5	=5
(>2F\	ve-	1c	ve-	1.f	ve-	(>1a	ve-
2D\	.	.	.	.	.	.	.
2G\)	.	2B\	.	.	.	2g\)	.
!LO:LB:g=original	!	!	!	!	!	!LO:LB:g=original	!
=6	=6	=6	=6	=6	=6	=6	=6
2C/	-stras	2c\	-stras	2e\	-stras	2g\	-stras
2c\	et	2e\	et	2g\	[e]t	2cc\	et
!	!	!LO:LB:g=original	!	!	!	!	!
4B\	e-	4d\	e-	4g\	e-	4dd\	e-
4B\	-le-	4d\	-le-	4g\	-le-	4dd\	-le-
!	!	!	!	!LO:LB:g=original	!	!	!
=7	=7	=7	=7	=7	=7	=7	=7
2.c\	-va-	2.e\	-va-	2.g\	-va-	2.cc\	-va-
4c\	-mi-	4e\	-mi-	4g\	-mi-	4cc\	-mi-
!	!	!LO:TX:a:t=P:problem=niejednoznaczna wysokość dźwięku	!	!	!	!	!
2G\	-ni	2d\	-ni	2g\	-ni	2b\	-ni
=8	=8	=8	=8	=8	=8	=8	=8
1A	por-	2.c\	por-	1e	por-	(>2.a\	por-
.	.	4d\	.	.	.	4b\)	.
!LO:SIC:l:v:s=-tae	!	!LO:SIC:l:v:s=-tae	!	!LO:SIC:l:v:s=-tae	!	!LO:SIC:l:v:s=-tae	!
2E\	-te	2e\	-te	2g\	-te	2cc\	-te
=9	=9	=9	=9	=9	=9	=9	=9
2F\	por-	2A\	por-	2f\	por-	2cc\	por-
!LO:SIC:l:v:s=-tae	!	!LO:SIC:l:v:s=-tae	!	!LO:SIC:l:v:s=-tae	!	!LO:SIC:l:v:s=-tae	!
(>4F\	-te	(>4A\	-te	2f\	-te	2cc\	-te
4G\)	.	4B\)	.	.	.	.	.
!LO:SIC:l:v:s=ae-	!	!LO:SIC:l:v:s=ae-	!	!LO:SIC:l:v:s=ae-	!	!LO:SIC:l:v:s=ae-	!
2A\	e-	2c\	e-	2e\	e-	2cc\	e-
=10	=10	=10	=10	=10	=10	=10	=10
2F\	-ter-	2f\	-ter-	2a\	-ter-	2cc\	-ter-
(>2G\	-na-	1d	-na-	2g\	-na-	(>2cc\	-na-
2GG/)	.	.	.	2g\	-les	2b\)	.
!	!	!	!	!	!	!LO:LB:g=original	!
=11	=11	=11	=11	=11	=11	=11	=11
2C/	-les	2e\	-les,	2c\	et	2cc\	-les
2C/	in-	1r	.	2c\	in-	2cc\	in-
2C/	-tro	.	.	2c\	-tro-	2cc\	-tro
!	!	!LO:TX:b:t=P:problem=napis na pięciolinii, za ostatnią kreską taktową na stronie	!	!	!	!	!
!	!	!LO:TX:b:i:t=V&colon;S&colon;	!	!	!	!	!
!LO:LB:g=original	!	!LO:PB:g=original	!	!	!	!	!
=12	=12	=12	=12	=12	=12	=12	=12
2G\	et	2d\	et	2g\	-i-	2b\	et
2G\	in-	2d\	in-	2g\	-bit	2g\	in-
2G\	-tro-	2d\	-tro-	4g\	in-	2b\	-tro-
.	.	.	.	4g\	-tro-	.	.
!	!	!	!	!LO:LB:g=original	!	!	!
=13	=13	=13	=13	=13	=13	=13	=13
2c\	-i-	2e\	-i-	2g\	-i-	2cc\	-i-
2B\	-bit	2d\	-bit	2g\	-bit	2dd\	-bit
2A\	rex	2c\	rex	2f#X\	rex	2cc\	rex
=14	=14	=14	=14	=14	=14	=14	=14
1G	glo-	1d	glo-	1g	glo-	1cc	glo-
2G\	-ri-	2d\	-ri-	2g\	-ri-	2b\	-ri-
=15	=15	=15	=15	=15	=15	=15	=15
!LO:SIC:l:v:s=-ae.	!	!LO:SIC:l:v:s=-ae.	!	!LO:SIC:l:v:s=-ae.	!	!LO:SIC:l:v:s=-ae,	!
1.C	-e.	1.e	-e.	1.g	-e.	1.cc	-e,
==16	==16	=16||	=16||	=16	=16	==16	==16
1A	Quis	1c	quis	1e	quis	1a	quis
2A\	as-	2c\	as-	2e\	as-	2a\	as-
!	!	!	!	!	!	!LO:LB:g=original	!
=17	=17	=17	=17	=17	=17	=17	=17
2G#X\	-cen-	2B\	-cen-	2e\	-cen-	2b\	-cen-
2G#\	-det	2B\	-det	2e\	-det	2b\	-det
2A\	in	2c\	in	2e\	in	2a\	in
=18	=18	=18	=18	=18	=18	=18	=18
1F	mon-	1c	mon-	1a	mon-	1a	mon-
2D\	-tem	2d\	-tem	2f\	-tem	2b\	-tem
!LO:LB:g=original	!	!LO:LB:g=original	!	!	!	!	!
=19	=19	=19	=19	=19	=19	=19	=19
2.E\	Do-	2.B\	Do-	2.e\	Do-	2.g#X\	Do-
4E\	-mi-	4B\	-mi-	4e\	-mi-	4g#\	-mi-
2E\	-ni	2B\	-ni	2e\	-ni	2g#\	-ni
=20	=20	=20	=20	=20	=20	=20	=20
1A	qut	1c	aut	1e	aut	1a	aut
2E\	quis	2e\	quis	2g#X\	quis	2b\	quis
!	!	!	!	!LO:LB:g=original	!	!	!
=21	=21	=21	=21	=21	=21	=21	=21
2F\	sta-	2c\	sta-	2a\	sta-	2a\	sta-
2F\	-bit	2c\	-bit	2a\	-bit	2a\	-bit
2D\	in	2d\	in	2f\	in	2a\	in
=22	=22	=22	=22	=22	=22	=22	=22
(>2D\	lo-	2d\	lo-	2f\	lo-	(>2a\	lo-
1E)	.	1B	-co	1e	-co	1g#X)	.
!	!	!	!	!	!	!LO:LB:g=original	!
=23	=23	=23	=23	=23	=23	=23	=23
2AA/	-co	2c\	lo-	2e\	lo-	1a	-co
1A	in	1c	-co	1e	-co	.	.
.	.	.	.	.	.	2a\	in
=24	=24	=24	=24	=24	=24	=24	=24
2.F#X\	lo-	(>2.d\	san-	(>2.f#X\	san-	2.a\	lo-
!	!	!	!	!	!	!LO:SIC:v:s=4g	!
4E\	-co	4e\)	.	4g\)	.	4g#X\	-co
4F#\	san-	(>4d\	-cto	(>4f#\	-cto	4a\	san-
4D\	-cto	4c\)	.	4e\)	.	4a\	-cto
!LO:LB:g=original	!	!	!	!	!	!	!
=25	=25	=25	=25	=25	=25	=25	=25
1.G	e-	1.B	e-	1.d	e-	1.gn	e-
=26	=26	=26	=26	=26	=26	=26	=26
!LO:SIC:l:v:s=-ius	!	!	!	!LO:SIC:l:v:s=-ius;	!	!LO:SIC:l:v:s=-ius.	!
1.C	-jus	1.c	-ius	1.e	-jus;	1.g	-jus.
!	!	!LO:LB:g=original	!	!	!	!	!
==27	==27	==27	==27	==27	==27	==27	==27
2.Fn\	in-	2.A\	In-	2.fn\	in-	2.cc\	In-
4F\	-no-	4A\	-no-	4f\	-no-	4cc\	-no-
2F\	-cens	2A\	-cens	2f\	-cens,	2cc\	-cens
=28	=28	=28	=28	=28	=28	=28	=28
2.F\	in-	2.G/	in-	2.d\	in-	2.b\	in-
4F\	-no-	4G/	-no-	4d\	-no-	4b\	-no-
2E\	-cens	2G/	-cens	2e\	-cens	2cc\	-cens
!	!	!	!	!	!	!LO:LB:g=original	!
=29	=29	=29	=29	=29	=29	=29	=29
1D	ma-	1A	ma-	1f	ma-	1cc	ma-
2D\	-ni-	2F/	-ni-	2f\	-ni-	2b\	-ni-
!	!	!	!	!LO:LB:g=original	!	!	!
=30	=30	=30	=30	=30	=30	=30	=30
2C/	-bus	2G/	-bus	2e\	-bus	2cc\	-bus
(>2c\	et	(>2c\	et	(>2e\	et	(>2cc\	et
2G\)	.	2G/)	.	2d\)	.	2b\)	.
=31	=31	=31	=31	=31	=31	=31	=31
(>2.A\	mun-	(>2.A\	mun-	(>2.e\	mun-	(>2.cc\	mun-
4B\)	.	4B\)	.	4d\)	.	4b\)	.
2c\	-do	2c\	-do	2c\	-do	2a\	-do
!LO:LB:g=original	!	!	!	!	!	!	!
=32	=32	=32	=32	=32	=32	=32	=32
(>2A\	cor-	(>2A\	cor-	(>1e	cor-	(>4a\L	cor-
.	.	.	.	.	.	4g\J)	.
1B)	.	1B)	.	.	.	1f#X	.
.	.	.	.	2d#X\)	.	.	.
!	!	!LO:LB:g=original	!	!	!	!	!
=33	=33	=33	=33	=33	=33	=33	=33
2E\	-de	2E/	-de	2e\	-de	2g#X\	-de
(>2E\	et	(>2e\	et	1e	et	2g#\	mun-
2A\)	.	2c\)	.	.	.	2a\	-do
=34	=34	=34	=34	=34	=34	=34	=34
1G#X	mun-	1e	mun-	1e	mun-	1b	cor-
2A\	-do	2c\	-do	2e\	-do	2a\	-de
=35	=35	=35	=35	=35	=35	=35	=35
(>2D\	cor-	1.B	cor-	(>2f\	cor-	(>1a	cor-
1E)	.	.	.	1e)	.	.	.
.	.	.	.	.	.	2g#X\)	-de
=36	=36	=36	=36	=36	=36	=36	=36
2AA/	-de	2c\	-de	2e\	-de	1a	mun-
2A\	mun-	2c\	mun-	2e\	mun-	.	.
2E\	-do	2B\	-do	2e\	-do	2b\	-do
=37	=37	=37	=37	=37	=37	=37	=37
1.F	cor-	1.A	cor-	(>1e	cor-	1cc	cor-
.	.	.	.	2d\)	.	2a\	.
=38	=38	=38	=38	=38	=38	=38	=38
1.E	-de.	1.G#X	-de.	1.e	-de.	1.b	-de
==	==	==	==	==	==	==	==
*-	*-	*-	*-	*-	*-	*-	*-
!!!system-decoration: [(s1,s2,s3,s4)]
!!!RDF**kern: > = above
!!!RDF**kern: < = below
!!!EED: Mateusz Mrugas
!!!EEV: 2021-02-02
!!!ENC: Andrzej Gręziak
!!!END: 2021-01-27
!!!YEC: Copyright 2022 Narodowy Instytut Fryderyka Chopina (https://polishscores.org)
!!!YEM: License CC-BY-4.0 (https://creativecommons.org/licenses/by/4.0)
